X:174
T:The man from Bundoran
R:Reel
D:Four Men and a Dog: Barking Mad
D:Altan: Harvest Storm
D:John McHugh & Barry Carroll: The Long Finger
S:Henrik Norbeck?
Z:Transcription:Henrik Norbeck(?), arrangement, chords:Mike Long
M:C|
L:1/8
K:D
"Em"BE~E2 BEdE|BE~E2 BcdB|"A"cA~A2 cdeA|cdef e2dc|\
"Em"BE~E2 BEdE|BE~E2 BcdB|
"A"cA~A2 cAeA|(3(Bcd) ef e2ef|]\
"D"dffe dcBA|~f2fe d2de|fA~A2 fgaf|
"A"ecAc e2eg|"D"~f2fe dcBA|effe dcde|fdAd fgaf|"A"ecAc e2dc|]
